static/img/kroki/1cdaf2807600394b28f4e2ad68745b70.svg

<?xml version="1.0" encoding="us-ascii" standalone="no"?><svg xmlns="http://www.w3.org/2000/svg" xmlns:xlink="http://www.w3.org/1999/xlink" contentStyleType="text/css" height="152px" preserveAspectRatio="none" style="width:387px;height:152px;" version="1.1" viewBox="0 0 387 152" width="387px" zoomAndPan="magnify"><defs/><g><!--class azure_authorization_management_lock--><g id="elem_azure_authorization_management_lock"><rect codeLine="23" fill="#3D176E" height="39.7891" id="azure_authorization_management_lock" rx="2.5" ry="2.5" style="stroke:#000D19;stroke-width:0.5;" width="373" x="7" y="7"/><ellipse cx="22" cy="26.8945" fill="#ADD1B2" rx="11" ry="11" style="stroke:#181818;stroke-width:1.0;"/><path d="M24.9688,32.5352 Q24.3906,32.832 23.75,32.9727 Q23.1094,33.1289 22.4063,33.1289 Q19.9063,33.1289 18.5781,31.4883 Q17.2656,29.832 17.2656,26.707 Q17.2656,23.582 18.5781,21.9258 Q19.9063,20.2695 22.4063,20.2695 Q23.1094,20.2695 23.75,20.4258 Q24.4063,20.582 24.9688,20.8789 L24.9688,23.5977 Q24.3438,23.0195 23.75,22.7539 Q23.1563,22.4727 22.5313,22.4727 Q21.1875,22.4727 20.5,23.5508 Q19.8125,24.6133 19.8125,26.707 Q19.8125,28.8008 20.5,29.8789 Q21.1875,30.9414 22.5313,30.9414 Q23.1563,30.9414 23.75,30.6758 Q24.3438,30.3945 24.9688,29.8164 L24.9688,32.5352 Z " fill="#000000"/><text fill="#D9B8FF" font-family="Helvetica" font-size="17" lengthAdjust="spacing" textLength="331" x="41" y="32.7798">azure_authorization_management_lock</text></g><!--class microsoft_resource--><g id="elem_microsoft_resource"><rect codeLine="26" fill="#3D176E" height="39.7891" id="microsoft_resource" rx="2.5" ry="2.5" style="stroke:#000D19;stroke-width:0.5;" width="200" x="93.5" y="106.79"/><ellipse cx="108.5" cy="126.6845" fill="#ADD1B2" rx="11" ry="11" style="stroke:#181818;stroke-width:1.0;"/><path d="M111.4688,132.3252 Q110.8906,132.622 110.25,132.7627 Q109.6094,132.9189 108.9063,132.9189 Q106.4063,132.9189 105.0781,131.2783 Q103.7656,129.622 103.7656,126.497 Q103.7656,123.372 105.0781,121.7158 Q106.4063,120.0595 108.9063,120.0595 Q109.6094,120.0595 110.25,120.2158 Q110.9063,120.372 111.4688,120.6689 L111.4688,123.3877 Q110.8438,122.8095 110.25,122.5439 Q109.6563,122.2627 109.0313,122.2627 Q107.6875,122.2627 107,123.3408 Q106.3125,124.4033 106.3125,126.497 Q106.3125,128.5908 107,129.6689 Q107.6875,130.7314 109.0313,130.7314 Q109.6563,130.7314 110.25,130.4658 Q110.8438,130.1845 111.4688,129.6064 L111.4688,132.3252 Z " fill="#000000"/><text fill="#D9B8FF" font-family="Helvetica" font-size="17" lengthAdjust="spacing" textLength="158" x="127.5" y="132.5698">microsoft_resource</text></g><!--link azure_authorization_management_lock to microsoft_resource--><g id="link_azure_authorization_management_lock_microsoft_resource"><path codeLine="29" d="M193.5,47.22 C193.5,64.36 193.5,83.27 193.5,100.41 " fill="none" id="azure_authorization_management_lock-to-microsoft_resource" style="stroke:#1A83AF;stroke-width:2.0;"/><polygon fill="#1A83AF" points="193.5,106.41,197.5,97.41,193.5,101.41,189.5,97.41,193.5,106.41" style="stroke:#1A83AF;stroke-width:2.0;"/></g><!--SRC=[ZP9FQm8n4CNl-oa2dWMtqggNmYf8Uv5IUojb6PE96tQJaKcsegNVlLfjINVzq-ky7- -z6QOm2WNQLTW8YtQ1x1DV6hS21YioPbfFg28M7Qr1zmTDSKekN0LcO54yOFMEmKXe4Y-5aQL3xyLD98r1bakcsgc3VM1mVYUX2n4rgS3xB0GsYpfWL4QD5aEjcsJJjDDNwU0EMnYnGZuYlLvFfQCcSZNgujw_nDniKQJnqMOKi5Mp5V5DNMov9wAIhKL_zBCTdq0fuvRYDfez7pgnG_updnUWQBsdDLG-Zl416IbiLZXfROMZeTA3a_3ZEJYH-zC9sDQCETIX83PR28PSRi714ktkGVAAP2a-akJpY5iZcJpfa3DwgbdYGVsFJVUrasR3VZPzwzwVC4g-0000]--></g></svg>

<svg xmlns="http://www.w3.org/2000/svg" width="387" height="152" viewBox="0 0 387 152"><rect width="373" height="39.789" x="7" y="7" fill="#3D176E" rx="2.5" ry="2.5" style="stroke:#000d19;stroke-width:.5"/><circle cx="22" cy="26.895" r="11" fill="#ADD1B2" style="stroke:#181818;stroke-width:1"/><path d="M24.969 32.535q-.578.297-1.219.438-.64.156-1.344.156-2.5 0-3.828-1.64-1.312-1.657-1.312-4.782t1.312-4.781q1.328-1.656 3.828-1.656.703 0 1.344.156.656.156 1.219.453v2.719q-.625-.578-1.219-.844-.594-.281-1.219-.281-1.343 0-2.031 1.078-.687 1.062-.687 3.156t.687 3.172q.688 1.062 2.031 1.062.625 0 1.219-.265.594-.281 1.219-.86z"/><text x="41" y="32.78" fill="#D9B8FF" font-family="Helvetica" font-size="17" textLength="331">azure_authorization_management_lock</text><rect width="200" height="39.789" x="93.5" y="106.79" fill="#3D176E" rx="2.5" ry="2.5" style="stroke:#000d19;stroke-width:.5"/><circle cx="108.5" cy="126.684" r="11" fill="#ADD1B2" style="stroke:#181818;stroke-width:1"/><path d="M111.469 132.325q-.578.297-1.219.438-.64.156-1.344.156-2.5 0-3.828-1.64-1.312-1.657-1.312-4.782t1.312-4.781q1.328-1.656 3.828-1.656.703 0 1.344.156.656.156 1.219.453v2.719q-.625-.579-1.219-.844-.594-.281-1.219-.281-1.344 0-2.031 1.078-.687 1.062-.687 3.156t.687 3.172q.688 1.062 2.031 1.062.625 0 1.219-.265.594-.281 1.219-.86z"/><text x="127.5" y="132.57" fill="#D9B8FF" font-family="Helvetica" font-size="17" textLength="158">microsoft_resource</text><path fill="none" d="M193.5 47.22v53.19" style="stroke:#1a83af;stroke-width:2"/><path fill="#1A83AF" d="m193.5 106.41 4-9-4 4-4-4z" style="stroke:#1a83af;stroke-width:2"/></svg>
